resources/lib/oojs-ui/themes/mediawiki/images/icons/die-rtl.svg

<?xml version="1.0" encoding="utf-8"?>
<svg xmlns="http://www.w3.org/2000/svg" width="24" height="24" viewBox="0 0 24 24">
    <path d="M7 5h12v12c0 1.6-1.3 3-3 3h-12v-12c0-1.7 1.4-3 3-3zm8.5 12c.8 0 1.5-.7 1.5-1.5s-.7-1.5-1.5-1.5-1.5.7-1.5 1.5.7 1.5 1.5 1.5zm0-6c.8 0 1.5-.7 1.5-1.5s-.7-1.5-1.5-1.5-1.5.7-1.5 1.5.7 1.5 1.5 1.5zm-4 3c.8 0 1.5-.7 1.5-1.5s-.7-1.5-1.5-1.5-1.5.7-1.5 1.5.7 1.5 1.5 1.5zm-4 3c.8 0 1.5-.7 1.5-1.5s-.7-1.5-1.5-1.5-1.5.7-1.5 1.5.7 1.5 1.5 1.5zm0-6c.8 0 1.5-.7 1.5-1.5s-.7-1.5-1.5-1.5-1.5.7-1.5 1.5.7 1.5 1.5 1.5z" id="path150"/>
</svg>

<?xml version="1.0" encoding="utf-8"?>
<svg xmlns="http://www.w3.org/2000/svg" width="24" height="24" viewBox="0 0 24 24">
    <path d="M7 5h12v12c0 1.6-1.3 3-3 3H4V8c0-1.7 1.4-3 3-3zm8.5 12c.8 0 1.5-.7 1.5-1.5s-.7-1.5-1.5-1.5-1.5.7-1.5 1.5.7 1.5 1.5 1.5zm0-6c.8 0 1.5-.7 1.5-1.5S16.3 8 15.5 8 14 8.7 14 9.5s.7 1.5 1.5 1.5zm-4 3c.8 0 1.5-.7 1.5-1.5s-.7-1.5-1.5-1.5-1.5.7-1.5 1.5.7 1.5 1.5 1.5zm-4 3c.8 0 1.5-.7 1.5-1.5S8.3 14 7.5 14 6 14.7 6 15.5 6.7 17 7.5 17zm0-6c.8 0 1.5-.7 1.5-1.5S8.3 8 7.5 8 6 8.7 6 9.5 6.7 11 7.5 11z"/>
</svg>
